SVG-Logos/Observability/Grafana/grafana-cloud-wordmark.svg

<svg xmlns="http://www.w3.org/2000/svg" width="161" height="19" viewBox="0 0 161 19" fill="none">
<path fill-rule="evenodd" clip-rule="evenodd" d="M11.5089 3.65034C10.138 4.45159 9.14208 5.87939 9.14208 7.91475V9.53492L7.67005 8.81035C5.74823 7.86438 3.53708 8.62497 2.4985 10.4141C1.87804 11.483 1.84524 13.1144 2.60988 14.4945C3.34062 15.8135 4.8218 16.9265 7.31116 16.9265H19.9233C21.567 16.9265 22.6304 16.4794 23.2683 15.9253C23.9038 15.3734 24.1958 14.6504 24.1958 13.9226C24.1958 13.1691 23.8835 12.3279 23.2729 11.7269C22.6902 11.1534 21.7855 10.7474 20.4563 10.9109L19.0241 11.0872L19.3372 9.70013C19.7101 8.04819 19.5941 6.68143 19.1015 5.63082C18.6173 4.59815 17.721 3.76539 16.3113 3.24498C14.7241 2.65904 12.9105 2.8312 11.5089 3.65034ZM10.4705 1.92831C12.4026 0.799087 14.8609 0.570744 17.0256 1.36987C18.8707 2.05102 20.2121 3.22087 20.9485 4.7916C21.52 6.01043 21.6967 7.40465 21.5331 8.89237C22.845 9.00054 23.9192 9.53119 24.7112 10.3107C25.7283 11.3118 26.2301 12.6735 26.2301 13.9226C26.2301 15.1974 25.708 16.477 24.6142 17.4271C23.5227 18.375 21.9414 18.9292 19.9233 18.9292H7.31116C4.10438 18.9292 1.92393 17.4388 0.823958 15.4534C-0.242129 13.5292 -0.274748 11.1553 0.732264 9.42054C2.0353 7.17579 4.65461 5.9591 7.22932 6.53994C7.60936 4.45526 8.84749 2.87683 10.4705 1.92831Z" fill="#EF5B3E"/>
<path d="M109.759 10.6118C109.759 6.37975 113.119 2.81152 117.393 2.81152C119.758 2.81152 121.832 3.8488 123.16 5.50844L121.501 6.83615C120.546 5.6744 119.053 4.88608 117.393 4.88608C114.364 4.88608 111.999 7.50001 111.999 10.5703C111.999 13.6407 114.323 16.2131 117.393 16.2131C119.053 16.2131 120.546 15.4663 121.501 14.2631L123.16 15.5908C121.832 17.2504 119.758 18.2877 117.393 18.2877C113.161 18.3292 109.759 14.8439 109.759 10.6118Z" fill="#EF5B3E"/>
<path d="M124.114 2.39661H126.23V18.0802H124.114V2.39661Z" fill="#EF5B3E"/>
<path d="M127.558 12.9769C127.558 9.74055 130.006 7.62451 132.911 7.62451C135.815 7.62451 138.263 9.74055 138.263 12.9769C138.263 16.2132 135.815 18.3292 132.911 18.3292C130.006 18.3292 127.558 16.2132 127.558 12.9769ZM136.147 12.9769C136.147 11.0268 134.653 9.65757 132.911 9.65757C131.168 9.65757 129.716 11.0268 129.716 12.9769C129.716 14.9684 131.168 16.3376 132.911 16.3376C134.653 16.3376 136.147 14.9684 136.147 12.9769Z" fill="#EF5B3E"/>
<path d="M148.968 7.91467V18.08H146.81V16.5448C146.229 17.7895 144.57 18.3704 143.532 18.3704C140.96 18.3704 139.425 16.6693 139.425 13.7649V7.95617H141.541V13.7234C141.541 15.3831 142.537 16.4203 143.864 16.4203C145.192 16.4203 146.81 15.632 146.81 13.516V7.91467H148.968Z" fill="#EF5B3E"/>
<path d="M161 2.39661V18.0802H158.884V16.545C158.22 17.7068 156.768 18.3292 155.399 18.3292C152.619 18.3292 150.337 16.2131 150.337 12.9768C150.337 9.74052 152.619 7.62448 155.357 7.62448C156.81 7.62448 158.22 8.24685 158.884 9.4086V2.39661H161ZM158.843 12.9768C158.843 10.9438 157.183 9.65754 155.606 9.65754C153.864 9.65754 152.453 11.0682 152.453 12.9768C152.453 14.8854 153.864 16.3376 155.606 16.3376C157.307 16.3376 158.843 15.0099 158.843 12.9768Z" fill="#EF5B3E"/>
<path d="M47.0241 10.7777C46.8582 14.8438 43.6634 18.0386 39.6387 18.0386C35.4066 18.0386 32.2948 14.6364 32.2948 10.4873C32.2948 6.33817 35.6971 2.89441 39.8462 2.89441C41.7133 2.89441 43.5389 3.68274 45.1155 5.13493L43.9123 6.6286C42.7091 5.59133 41.2984 4.88598 39.8877 4.88598C36.8588 4.88598 34.3694 7.37545 34.3694 10.4458C34.3694 13.5576 36.7343 15.9641 39.7217 15.9641C42.4186 15.9641 44.5347 14.014 44.9496 11.4416H38.8504V9.65745H47.1071L47.0241 10.7777Z" fill="#EF5B3E"/>
<path d="M54.0362 9.78164H52.9159C51.6712 9.78164 50.6754 10.7774 50.6754 12.0222V17.9139H48.6838V7.87305H50.3435V8.70287C50.8829 8.16348 51.7542 7.87305 52.7085 7.87305H54.866L54.0362 9.78164Z" fill="#EF5B3E"/>
<path d="M64.9899 17.9139H63.2888V16.6277C61.9611 17.9139 59.8865 18.5363 57.7705 17.6235C56.1938 16.9182 55.0321 15.5075 54.7416 13.8063C54.1608 10.57 56.6502 7.66565 59.845 7.66565C61.1728 7.66565 62.4175 8.20504 63.2888 9.07635V7.79012H65.0314L64.9899 17.9139ZM62.9569 13.5989C63.4133 11.5658 61.8781 9.69871 59.8865 9.69871C58.1439 9.69871 56.7332 11.1094 56.7332 12.852C56.7332 14.8021 58.4343 16.3373 60.4674 15.9639C61.6292 15.7979 62.6664 14.8436 62.9569 13.5989Z" fill="#EF5B3E"/>
<path d="M69.056 7.29228V7.87315H72.2508V9.65727H69.056V17.9555H67.0645V7.41675C67.0645 5.21773 68.6411 3.89001 70.6327 3.89001H73.0392L72.2508 5.7986H70.6327C69.7614 5.71562 69.056 6.42097 69.056 7.29228Z" fill="#EF5B3E"/>
<path d="M82.9138 17.9139H81.2126V16.6277C79.8849 17.9139 77.8104 18.5363 75.6943 17.6235C74.1177 16.9182 72.9559 15.5075 72.6655 13.8063C72.0846 10.57 74.5741 7.66565 77.7689 7.66565C79.0966 7.66565 80.3413 8.20504 81.2126 9.07635V7.79012H82.9553L82.9138 17.9139ZM80.8392 13.5989C81.2956 11.5658 79.7604 9.69871 77.7689 9.69871C76.0263 9.69871 74.6156 11.1094 74.6156 12.852C74.6156 14.8021 76.3167 16.3373 78.3498 15.9639C79.553 15.7979 80.5488 14.8436 80.8392 13.5989Z" fill="#EF5B3E"/>
<path d="M93.6601 11.9807V17.914H91.627V11.9807C91.627 10.736 90.5897 9.74021 89.3865 9.74021C88.1003 9.74021 87.1045 10.736 87.1045 11.9807V17.914H85.1129V7.87311H86.7726V8.74443C87.4779 8.08057 88.4737 7.70715 89.4695 7.70715C91.793 7.70715 93.6601 9.61574 93.6601 11.9807Z" fill="#EF5B3E"/>
<path d="M105.485 17.9139H103.784V16.6277C102.456 17.9139 100.382 18.5363 98.2658 17.6235C96.6892 16.9182 95.5274 15.5075 95.237 13.8063C94.6561 10.57 97.1456 7.66565 100.34 7.66565C101.668 7.66565 102.913 8.20504 103.784 9.07635V7.79012H105.527L105.485 17.9139ZM103.411 13.5989C103.867 11.5658 102.332 9.69871 100.34 9.69871C98.5978 9.69871 97.1871 11.1094 97.1871 12.852C97.1871 14.8021 98.8882 16.3373 100.921 15.9639C102.125 15.7979 103.12 14.8436 103.411 13.5989Z" fill="#EF5B3E"/>
</svg>

<svg xmlns="http://www.w3.org/2000/svg" fill="none" viewBox="0 0 161 19"><path fill="#EF5B3E" fill-rule="evenodd" d="M11.509 3.65c-1.371.802-2.367 2.23-2.367 4.265v1.62L7.67 8.81c-1.922-.946-4.133-.185-5.171 1.604-.621 1.069-.654 2.7.11 4.08.732 1.32 2.213 2.433 4.702 2.433h12.612c1.644 0 2.707-.448 3.345-1.002a2.615 2.615 0 0 0 .928-2.002c0-.754-.313-1.595-.923-2.196-.583-.574-1.488-.98-2.817-.816l-1.432.176.313-1.387c.373-1.652.257-3.019-.235-4.07-.485-1.032-1.381-1.865-2.79-2.385-1.588-.586-3.402-.414-4.803.405ZM10.47 1.928C12.403.8 14.86.571 17.026 1.37c1.845.681 3.186 1.85 3.922 3.422.572 1.218.749 2.613.585 4.1 1.312.109 2.386.64 3.178 1.419a5.14 5.14 0 0 1 1.52 3.612 4.604 4.604 0 0 1-1.617 3.504c-1.091.948-2.673 1.502-4.69 1.502H7.31c-3.207 0-5.387-1.49-6.487-3.476C-.242 13.53-.275 11.155.732 9.421 2.035 7.176 4.655 5.959 7.23 6.54c.38-2.085 1.618-3.663 3.241-4.612Z" clip-rule="evenodd"/><path fill="#EF5B3E" d="M109.759 10.612c0-4.232 3.36-7.8 7.634-7.8 2.365 0 4.439 1.037 5.767 2.696l-1.659 1.328a5.35 5.35 0 0 0-4.108-1.95c-3.029 0-5.394 2.614-5.394 5.684 0 3.07 2.324 5.643 5.394 5.643 1.66 0 3.153-.747 4.108-1.95l1.659 1.328c-1.328 1.66-3.402 2.697-5.767 2.697-4.232.041-7.634-3.444-7.634-7.676ZM124.114 2.397h2.116V18.08h-2.116V2.397ZM127.558 12.977c0-3.236 2.448-5.352 5.353-5.352 2.904 0 5.352 2.116 5.352 5.352s-2.448 5.352-5.352 5.352c-2.905 0-5.353-2.116-5.353-5.352Zm8.589 0c0-1.95-1.494-3.32-3.236-3.32-1.743 0-3.195 1.37-3.195 3.32 0 1.991 1.452 3.36 3.195 3.36 1.742 0 3.236-1.369 3.236-3.36ZM148.968 7.915V18.08h-2.158v-1.535c-.581 1.244-2.24 1.825-3.278 1.825-2.572 0-4.107-1.7-4.107-4.605V7.956h2.116v5.767c0 1.66.996 2.697 2.323 2.697 1.328 0 2.946-.788 2.946-2.904V7.915h2.158ZM161 2.397V18.08h-2.116v-1.535c-.664 1.162-2.116 1.784-3.485 1.784-2.78 0-5.062-2.116-5.062-5.352s2.282-5.353 5.02-5.353c1.453 0 2.863.623 3.527 1.785V2.397H161Zm-2.157 10.58c0-2.033-1.66-3.32-3.237-3.32-1.742 0-3.153 1.411-3.153 3.32 0 1.908 1.411 3.36 3.153 3.36 1.701 0 3.237-1.327 3.237-3.36ZM47.024 10.778c-.166 4.066-3.36 7.26-7.385 7.26-4.232 0-7.344-3.402-7.344-7.55 0-4.15 3.402-7.594 7.551-7.594 1.867 0 3.693.789 5.27 2.24L43.911 6.63c-1.203-1.038-2.614-1.743-4.024-1.743-3.03 0-5.519 2.49-5.519 5.56 0 3.112 2.365 5.518 5.353 5.518 2.697 0 4.813-1.95 5.228-4.522h-6.1V9.657h8.257l-.083 1.12ZM54.036 9.782h-1.12c-1.245 0-2.24.995-2.24 2.24v5.892h-1.992V7.873h1.66v.83c.539-.54 1.41-.83 2.364-.83h2.158l-.83 1.909ZM64.99 17.914h-1.701v-1.286c-1.328 1.286-3.403 1.908-5.519.995-1.576-.705-2.738-2.116-3.028-3.817-.581-3.236 1.908-6.14 5.103-6.14 1.328 0 2.572.539 3.444 1.41V7.79h1.742l-.041 10.124Zm-2.033-4.315c.456-2.033-1.079-3.9-3.07-3.9a3.152 3.152 0 0 0-3.154 3.153c0 1.95 1.701 3.485 3.734 3.112 1.162-.166 2.2-1.12 2.49-2.365ZM69.056 7.292v.581h3.195v1.784h-3.195v8.299h-1.992V7.416c0-2.198 1.577-3.526 3.569-3.526h2.406l-.788 1.909h-1.618c-.872-.083-1.577.622-1.577 1.493ZM82.914 17.914h-1.701v-1.286c-1.328 1.286-3.403 1.908-5.519.995-1.576-.705-2.738-2.116-3.029-3.817-.58-3.236 1.91-6.14 5.104-6.14 1.328 0 2.572.539 3.444 1.41V7.79h1.742l-.041 10.124Zm-2.075-4.315c.457-2.033-1.079-3.9-3.07-3.9a3.152 3.152 0 0 0-3.153 3.153c0 1.95 1.7 3.485 3.734 3.112 1.203-.166 2.199-1.12 2.49-2.365ZM93.66 11.98v5.934h-2.033v-5.933c0-1.245-1.037-2.24-2.24-2.24-1.287 0-2.282.995-2.282 2.24v5.933h-1.992V7.874h1.66v.87c.705-.663 1.7-1.037 2.697-1.037 2.323 0 4.19 1.909 4.19 4.274ZM105.485 17.914h-1.701v-1.286c-1.328 1.286-3.402 1.908-5.518.995-1.577-.705-2.739-2.116-3.029-3.817-.58-3.236 1.909-6.14 5.103-6.14 1.328 0 2.573.539 3.444 1.41V7.79h1.743l-.042 10.124Zm-2.074-4.315c.456-2.033-1.079-3.9-3.071-3.9a3.152 3.152 0 0 0-3.153 3.153c0 1.95 1.701 3.485 3.734 3.112 1.204-.166 2.199-1.12 2.49-2.365Z"/></svg>
